X:64
T: ICH HOERT EIN SICHLEIN RAUSCHEN
N: E0679D
O: Europa, Mitteleuropa, Deutschland, Heidelberg
R: Liebes - Lied, Leid, Klage
M: 6/8
L: 1/16
K: F
C2 | A2G2A2c2B2A2 | G6D4
GA | B2A2B2d2c2B2 | A8z2
AB | c2d2c2c2f2d2 | c6
A4FG | A2B2A2G2A2G2 | F8z2

@@@ Tune index: 4377
